X:1
T:Olivet (Dykes), SMD
T:Olivet (Dykes), SMD
T:John Bacchus Dykes, 1870
T:Public Domain Courtesy of the Cyber Hymnal™
C:John Bacchus Dykes, 1870
Z:Public Domain
Z:Courtesy of the Cyber Hymnal™
%%score ( 1 2 ) ( 3 4 )
L:1/8
Q:1/4=108
M:4/4
K:A
V:1 treble 
V:2 treble 
V:3 bass 
V:4 bass 
V:1
 [CE]2 | E2 [EA]2 [FA]2 [Fc]2 | [Ee]6 [EA]2 | d2 [Ac]2 [Ac]2 [GB]2 x | [EA]6 [EA]2 | %5
 [CE]2 [DE]2 [EA]2 [CE]2 | A2 c2 [Ee]2 [CA]2 | [Fd]2 [Ec]2 [Ec]2 [DB]2 | [CA]6 [EA]2 | %9
 [=FA]2 [E=c]2 [FB]2 [^FB]2 | [EB]6 [Ae]2 | [Dd]2 [E=c]2 [=FB]2 [^FB]2 | [EB]6 [DE]2 | %13
 E2 [Ec]2 [DB]2 [EA]2 | [DA]2 [Fd]2 [Ec]2 [FB]2 | [EA]2 (GA) [EB]3 [EG] | [EA]6 |] %17
V:2
 x2 | E2 x6 | x8 | (FG) x7 | x8 | x8 | A2 (GF) x4 | x8 | x8 | x8 | x8 | x8 | x8 | (CD) x6 | x8 | %15
 x2 E2 x4 | x6 |] %17
V:3
 [E,A,]2 | [A,C]2 [A,C]2 [F,C]2 [F,A,]2 | [C,A,]6 [C,C]2 | [B,D]2 [A,E]2 E3 z D | %4
 [A,C]6 [A,C][B,D] | [E,A,]2 [G,B,]2 [A,C]3 [G,B,] | [F,A,]2 A,2 [C,A,]2 [F,A,]2 | %7
 (F,G,) A,2 ([E,A,][D,F,]) [E,G,]2 | [A,,A,]6 [A,=C]2 | [=F,=C]2 [=C,A,]2 [D,D]2 (CB,) | %10
 [A,,A,]6 [=C,E,]2 | [=F,A,]2 [E,A,]2 [D,A,]2 [^D,A,]2 | [E,G,]6 [E,G,]2 | %13
 (E,F,) [A,,=G,]2 [B,,G,]2 [C,G,]2 | [D,F,]2 [B,,A,]2 [C,A,]2 [D,D]2 | [E,C]2 (B,C) [E,D]3 [E,B,] | %16
 [A,,C]6 |] %17
V:4
 x2 | x8 | x8 | x4 E,2 E,2 x | x8 | x8 | x2 (E,D,) x4 | B,,2 (C,D,) x4 | x8 | x6 =F,2 | x8 | x8 | %12
 x8 | A,,2 x6 | x8 | x2 E,2 E,,4 | x6 |] %17

